packages/cashier-v2/src/assets/images/back-arrow.svg

<svg width="16" height="16" viewBox="0 0 16 16" fill="none" xmlns="http://www.w3.org/2000/svg">
<g clip-path="url(#clip0_18916_80425)">
<path d="M8.70711 0.292893C9.09763 0.683418 9.09763 1.31658 8.70711 1.70711L3.414 6.999L15 7C15.5523 7 16 7.44772 16 8C16 8.55229 15.5523 9 15 9L3.414 8.999L8.70711 14.2929C9.09763 14.6834 9.09763 15.3166 8.70711 15.7071C8.31658 16.0976 7.68342 16.0976 7.29289 15.7071L0.292893 8.70711L0.219689 8.62545C0.217372 8.62256 0.215071 8.61966 0.212786 8.61675L0.292893 8.70711C0.257499 8.67171 0.225313 8.63433 0.196335 8.59531C0.17849 8.57113 0.161719 8.54628 0.146067 8.52066C0.138607 8.50861 0.131499 8.49639 0.124671 8.48406C0.113794 8.46429 0.103377 8.44389 0.0936538 8.4231C0.0856791 8.4061 0.0781964 8.3888 0.0712255 8.37134C0.0633157 8.35158 0.0561225 8.3318 0.0495467 8.31174C0.0447287 8.29685 0.0400977 8.28146 0.0358451 8.26599C0.0298336 8.24444 0.0246398 8.22275 0.0201652 8.20079C0.0167022 8.18338 0.0136281 8.16595 0.0110178 8.14847C0.00811223 8.1295 0.00576612 8.10985 0.00399798 8.09003C0.00189498 8.06599 0.000634893 8.04268 0.000186148 8.01935C6.67474e-05 8.01347 0 8.00674 0 8L0.000186148 7.98065C0.000634893 7.95732 0.00189498 7.93401 0.00396641 7.91075L0 8C0 7.94938 0.00376119 7.89964 0.0110193 7.85104C0.0136281 7.83405 0.0167022 7.81663 0.0202401 7.79927C0.0246398 7.77725 0.0298336 7.75556 0.035721 7.73416C0.0400977 7.71854 0.0447287 7.70315 0.0497381 7.68786C0.0561225 7.6682 0.0633157 7.64842 0.071104 7.62894C0.0781964 7.6112 0.085679 7.5939 0.0936734 7.57678C0.103377 7.55611 0.113794 7.53571 0.124876 7.51572C0.131499 7.50361 0.138607 7.49139 0.145995 7.47929C0.161719 7.45373 0.17849 7.42887 0.196314 7.40484C0.201753 7.3974 0.207284 7.39016 0.212928 7.38298C0.237669 7.35153 0.264427 7.32136 0.292893 7.29289L7.29289 0.292893C7.68342 -0.0976311 8.31658 -0.0976311 8.70711 0.292893Z" fill="#333333"/>
</g>
<defs>
<clipPath id="clip0_18916_80425">
<rect width="16" height="16" fill="white"/>
</clipPath>
</defs>
</svg>

<svg width="16" height="16" viewBox="0 0 16 16" fill="none" xmlns="http://www.w3.org/2000/svg"><g clip-path="url(#a)"><path d="M8.707.293a1 1 0 0 1 0 1.414L3.414 7H15a1 1 0 1 1 0 2L3.414 8.999l5.293 5.294a1 1 0 1 1-1.414 1.414l-7-7-.073-.082-.007-.008.08.09a1 1 0 0 1-.289-.617L0 8v-.02q0-.034.004-.07L0 8a1 1 0 0 1 .213-.617q.037-.047.08-.09l7-7a1 1 0 0 1 1.414 0" fill="#333"/></g><defs><clipPath id="a"><path fill="#fff" d="M0 0h16v16H0z"/></clipPath></defs></svg>
